X: 100338
M: C|
L: 1/8
K: C
uG |\
(.E>.D)(E>C) EGG2 | (c>G)A>G c>GA<c |\
(.E>.D)(E>C) E<GG>c | (A>d)(G>c) EDD :|
|: ug |\
{f}e2(d>c) (.d>.e)(dA) | (.c>.d)(ed) (e/d/)c/B/ (cG) |\
|: uf |\
e<g(g>a) (g>a)g>d | e<a(a>b) (a>b)ag |\
(e>g)(d>e) ~c>dec | A<a(g>e) (ed)d :|
[| ug |\
(fe)(dc) d<ea2 | (ge)e>d ~c2(Ac) |\
(G>A)(c>d) (c/d/e) (d>c) | (Ac)(Gc) EDD>g |
(ge)(dc) d<e{^g}a2 | (=g<e)(e>d) ~c2(Ae/g/) |\
(a>e)(g>d) {f}e2(dc) | (A3/B//c//) (G>c) "_Segue Reel."EDD "^D.C."|]


